X:33
T:Les btons et les serviettes
R:
S:
N:
A:Champagne
G:
O:France
Z:<anamnese@laposte.net>
M:2/4
L:1/8
Q:1/4=135
K:D
D/E/F/G/ AA | d/c/B/c/ A2{A} | D/E/F/G/ AA | d2 ^A2 :| cB/A/ BA/G/ | 
AA/B/ GA/B/ | cB/A/ BA/G/ | A2G2 :|
